; generated by PrusaSlicer 2.8.0 on 2024-12-01 at 15:06:24 UTC


;
;

;
;
; TODO: check the size of the extruder and the y-bar clearance. Optimize & test supports.

; external perimeters extrusion width = 0.42mm
; perimeters extrusion width = 0.44mm
; infill extrusion width = 0.44mm
; solid infill extrusion width = 0.44mm
; top infill extrusion width = 0.44mm
; first layer extrusion width = 0.56mm

;TYPE:Custom
PRINT_START EXTRUDER_TEMP=260 BED_TEMP=110
G21 ; set units to millimeters
G90 ; use absolute coordinates
M83 ; use relative distances for extrusion
SET_PRESSURE_ADVANCE EXTRUDER=extruder ADVANCE=0.027
M107
;LAYER_CHANGE
;Z:0.28
;HEIGHT:0.28
G1 E-.75 F3000
G1 Z.68 F30000
G1 X92.258 Y91.753
G1 Z.28
G1 E.75 F1800
M204 S8000
;TYPE:Skirt/Brim
;WIDTH:0.56
G1 F4715.12
G1 X93.88 Y90.9 E.10132
G1 X95 Y90.75 E.06247
G1 X125 Y90.75 E1.65856
G1 X126.79 Y91.146 E.10135
G1 X128.247 Y92.258 E.10133
G1 X129.1 Y93.88 E.10132
G1 X129.25 Y95 E.06247
G1 X129.25 Y125 E1.65856
G1 X128.854 Y126.79 E.10135
G1 X127.742 Y128.247 E.10133
G1 X126.12 Y129.1 E.10132
G1 X125 Y129.25 E.06247
G1 X95 Y129.25 E1.65856
G1 X93.21 Y128.854 E.10135
G1 X91.753 Y127.742 E.10133
G1 X90.9 Y126.12 E.10132
G1 X90.75 Y125 E.06247
G1 X90.75 Y95 E1.65856
G1 X91.146 Y93.21 E.10135
G1 X92.221 Y91.801 E.09798
M204 S12000
M204 S3000
G1 X92.221 Y91.801 F30000
G1 X92.631 Y92.142
M204 S8000
G1 F4715.12
G1 X92.746 Y92.003 E.00997
G1 X95 Y91.25 E.13138
G1 X125 Y91.25 E1.65856
G1 X126.675 Y91.645 E.09514
G1 X127.997 Y92.746 E.09511
G1 X128.75 Y95 E.13138
G1 X128.75 Y125 E1.65856
G1 X128.355 Y126.675 E.09514
G1 X127.254 Y127.997 E.09511
G1 X125 Y128.75 E.13138
G1 X95 Y128.75 E1.65856
G1 X93.325 Y128.355 E.09514
G1 X92.003 Y127.254 E.09511
G1 X91.25 Y125 E.13138
G1 X91.25 Y95 E1.65856
G1 X91.645 Y93.325 E.09514
G1 X92.592 Y92.188 E.08181
M204 S12000
M204 S3000
G1 X92.592 Y92.188 F30000
G1 X92.979 Y92.546
M204 S8000
G1 F4715.12
G1 X93.23 Y92.274 E.02046
G1 X95 Y91.75 E.10205
G1 X125 Y91.75 E1.65856
G1 X126.551 Y92.144 E.08847
G1 X127.726 Y93.23 E.08846
G1 X128.25 Y95 E.10205
G1 X128.25 Y125 E1.65856
G1 X127.856 Y126.551 E.08847
G1 X126.77 Y127.726 E.08846
G1 X125 Y128.25 E.10205
G1 X95 Y128.25 E1.65856
G1 X93.449 Y127.856 E.08847
G1 X92.274 Y126.77 E.08846
G1 X91.75 Y125 E.10205
G1 X91.75 Y95 E1.65856
G1 X92.144 Y93.449 E.08847
G1 X92.939 Y92.59 E.06471
M204 S12000
G1 E-.75 F3000
M204 S3000
G1 X92.939 Y92.59 Z.68 F30000
G1 X96.58 Y96.58
G1 Z.28
G1 E.75 F1800
M204 S8000
;TYPE:Perimeter
;WIDTH:0.56
G1 F4715.125
G1 X123.42 Y96.58 E1.48385
G1 X123.42 Y110 E.74193
G1 X123.42 Y123.42 E.74193
G1 X96.58 Y123.42 E1.48385
G1 X96.58 Y96.64 E1.48054
M204 S12000
M204 S3000
G1 X96.58 Y96.64 F30000
G1 X96.08 Y96.08
M204 S8000
G1 F4715.125
G1 X123.92 Y96.08 E1.53914
G1 X123.92 Y110 E.76957
G1 X123.92 Y123.92 E.76957
G1 X96.08 Y123.92 E1.53914
G1 X96.08 Y96.14 E1.53582
M204 S12000
M204 S3000
G1 X95.58 Y95.58 F30000
M204 S8000
;TYPE:External perimeter
G1 F4715.125
G1 X124.42 Y95.58 E1.59442
G1 X124.42 Y110 E.79721
G1 X124.42 Y124.42 E.79721
G1 X95.58 Y124.42 E1.59442
G1 X95.58 Y95.64 E1.59111
M204 S12000
G1 X95.976 Y95.581 F30000
G1 E-.75 F3000
M204 S3000
G1 Z.68 F30000
G1 X123.245 Y97.766
G1 Z.28
G1 E.75 F1800
M204 S8000
;TYPE:Solid infill
;WIDTH:0.560539
G1 F4710.047
G1 X122.458 Y96.98 E.06156
G1 X121.751 Y96.98 E.03913
G1 X123.02 Y98.249 E.09932
G1 X123.02 Y98.957 E.03918
G1 X121.043 Y96.98 E.15474
G1 X120.335 Y96.98 E.03918
G1 X123.02 Y99.665 E.21015
G1 X123.02 Y100.373 E.03918
G1 X119.628 Y96.98 E.26553
G1 X118.92 Y96.98 E.03918
G1 X123.02 Y101.08 E.3209
G1 X123.02 Y101.788 E.03918
G1 X118.212 Y96.98 E.37632
G1 X117.504 Y96.98 E.03918
G1 X123.02 Y102.496 E.43173
G1 X123.02 Y103.203 E.03913
G1 X116.797 Y96.98 E.48707
G1 X116.089 Y96.98 E.03918
G1 X123.02 Y103.911 E.54248
G1 X123.02 Y104.619 E.03918
G1 X115.381 Y96.98 E.5979
G1 X114.673 Y96.98 E.03918
G1 X123.02 Y105.327 E.65331
G1 X123.02 Y106.034 E.03913
G1 X113.966 Y96.98 E.70865
G1 X113.258 Y96.98 E.03918
G1 X123.02 Y106.742 E.76406
G1 X123.02 Y107.45 E.03918
G1 X112.55 Y96.98 E.81948
G1 X111.842 Y96.98 E.03918
G1 X123.02 Y108.158 E.87489
G1 X123.02 Y108.865 E.03913
G1 X111.135 Y96.98 E.93023
G1 X110.427 Y96.98 E.03918
G1 X123.02 Y109.573 E.98565
G1 X123.02 Y110.281 E.03918
G1 X109.719 Y96.98 E1.04106
G1 X109.011 Y96.98 E.03918
G1 X123.02 Y110.989 E1.09647
G1 X123.02 Y111.696 E.03913
G1 X108.304 Y96.98 E1.15181
G1 X107.596 Y96.98 E.03918
G1 X123.02 Y112.404 E1.20723
G1 X123.02 Y113.112 E.03918
G1 X106.888 Y96.98 E1.26264
G1 X106.18 Y96.98 E.03918
G1 X123.02 Y113.82 E1.31805
G1 X123.02 Y114.527 E.03913
G1 X105.473 Y96.98 E1.37339
G1 X104.765 Y96.98 E.03918
G1 X123.02 Y115.235 E1.42881
G1 X123.02 Y115.943 E.03918
G1 X104.057 Y96.98 E1.48422
G1 X103.349 Y96.98 E.03918
G1 X123.02 Y116.651 E1.53964
G1 X123.02 Y117.358 E.03913
G1 X102.642 Y96.98 E1.59497
G1 X101.934 Y96.98 E.03918
G1 X123.02 Y118.066 E1.65039
G1 X123.02 Y118.774 E.03918
G1 X101.226 Y96.98 E1.7058
G1 X100.518 Y96.98 E.03918
G1 X123.02 Y119.482 E1.76122
G1 X123.02 Y120.189 E.03913
G1 X99.811 Y96.98 E1.81655
G1 X99.103 Y96.98 E.03918
G1 X123.02 Y120.897 E1.87197
G1 X123.02 Y121.605 E.03918
G1 X98.395 Y96.98 E1.92738
G1 X97.687 Y96.98 E.03918
G1 X123.02 Y122.313 E1.9828
G1 X123.02 Y123.02 E.03913
G1 X96.98 Y96.98 E2.03813
G1 X96.98 Y97.688 E.03918
G1 X122.312 Y123.02 E1.98272
G1 X121.605 Y123.02 E.03913
G1 X96.98 Y98.395 E1.92738
G1 X96.98 Y99.103 E.03918
G1 X120.897 Y123.02 E1.87197
G1 X120.189 Y123.02 E.03918
G1 X96.98 Y99.811 E1.81655
G1 X96.98 Y100.518 E.03913
G1 X119.482 Y123.02 E1.76122
G1 X118.774 Y123.02 E.03918
G1 X96.98 Y101.226 E1.7058
G1 X96.98 Y101.934 E.03918
G1 X118.066 Y123.02 E1.65039
G1 X117.358 Y123.02 E.03918
G1 X96.98 Y102.642 E1.59497
G1 X96.98 Y103.349 E.03913
G1 X116.651 Y123.02 E1.53964
G1 X115.943 Y123.02 E.03918
G1 X96.98 Y104.057 E1.48422
G1 X96.98 Y104.765 E.03918
G1 X115.235 Y123.02 E1.42881
G1 X114.527 Y123.02 E.03918
G1 X96.98 Y105.473 E1.37339
G1 X96.98 Y106.18 E.03913
G1 X113.82 Y123.02 E1.31805
G1 X113.112 Y123.02 E.03918
G1 X96.98 Y106.888 E1.26264
G1 X96.98 Y107.596 E.03918
G1 X112.404 Y123.02 E1.20723
G1 X111.696 Y123.02 E.03918
G1 X96.98 Y108.304 E1.15181
G1 X96.98 Y109.011 E.03913
G1 X110.989 Y123.02 E1.09647
G1 X110.281 Y123.02 E.03918
G1 X96.98 Y109.719 E1.04106
G1 X96.98 Y110.427 E.03918
G1 X109.573 Y123.02 E.98565
G1 X108.865 Y123.02 E.03918
G1 X96.98 Y111.135 E.93023
G1 X96.98 Y111.842 E.03913
G1 X108.158 Y123.02 E.87489
G1 X107.45 Y123.02 E.03918
G1 X96.98 Y112.55 E.81948
G1 X96.98 Y113.258 E.03918
G1 X106.742 Y123.02 E.76406
G1 X106.034 Y123.02 E.03918
G1 X96.98 Y113.966 E.70865
G1 X96.98 Y114.673 E.03913
G1 X105.327 Y123.02 E.65331
G1 X104.619 Y123.02 E.03918
G1 X96.98 Y115.381 E.5979
G1 X96.98 Y116.089 E.03918
G1 X103.911 Y123.02 E.54248
G1 X103.203 Y123.02 E.03918
G1 X96.98 Y116.797 E.48707
G1 X96.98 Y117.504 E.03913
G1 X102.496 Y123.02 E.43173
G1 X101.788 Y123.02 E.03918
G1 X96.98 Y118.212 E.37632
G1 X96.98 Y118.92 E.03918
G1 X101.08 Y123.02 E.3209
G1 X100.372 Y123.02 E.03918
G1 X96.98 Y119.628 E.26549
G1 X96.98 Y120.335 E.03913
G1 X99.665 Y123.02 E.21015
G1 X98.957 Y123.02 E.03918
G1 X96.98 Y121.043 E.15474
G1 X96.98 Y121.751 E.03918
G1 X98.249 Y123.02 E.09932
G1 X97.541 Y123.02 E.03918
G1 X96.755 Y122.234 E.06152
M204 S12000
;LAYER_CHANGE
;Z:0.52
;HEIGHT:0.24
;BEFORE_LAYER_CHANGE
;0.52
G92 E0

G1 Z.52 F30000
;AFTER_LAYER_CHANGE
;0.52
M204 S3000
G1 X95.977 Y124.023
M204 S12000
;TYPE:Perimeter
;WIDTH:0.439999
G1 F7078.599
G1 X95.977 Y95.977 E1.03282
G1 X124.023 Y95.977 E1.03282
G1 X124.023 Y110 E.51641
G1 X124.023 Y124.023 E.51641
G1 X96.037 Y124.023 E1.03061
M204 S3000
G1 X95.588 Y124.412 F30000
M204 S12000
G1 F7078.599
G1 X95.588 Y95.588 E1.06147
G1 X124.412 Y95.588 E1.06147
G1 X124.412 Y110 E.53074
G1 X124.412 Y124.412 E.53074
G1 X95.648 Y124.412 E1.05926
M204 S3000
G1 X95.648 Y124.412 F30000
G1 X95.21 Y124.79
M204 S12000
;TYPE:External perimeter
;WIDTH:0.419999
G1 F7462.788
G1 X95.21 Y95.21 E1.03323
G1 X124.79 Y95.21 E1.03323
G1 X124.79 Y110 E.51662
G1 X124.79 Y124.79 E.51662
G1 X95.27 Y124.79 E1.03114
G1 X95.211 Y124.394 F30000
M204 S3000
G1 X96.393 Y96.319
M204 S15000
;TYPE:Solid infill
;WIDTH:0.534256
G1 F5696.506
G1 X96.351 Y96.277 E.00272
G1 X96.292 Y96.292 E.00279
G1 X96.277 Y96.351 E.00279
G1 X96.319 Y96.393 E.00272
G1 X96.378 Y96.378 E.00279
;WIDTH:0.439999
G1 F7078.599
G1 X96.288 Y96.998 E.02307
G1 X96.998 Y96.288 E.03698
G1 X97.177 Y96.152 E.00828
;WIDTH:0.391504
G1 F7200
G1 X97.136 Y96.163 E.00137
G1 X97.117 Y96.092 E.00237
G1 X97.188 Y96.111 E.00237
;WIDTH:0.439999
G1 F7078.599
G1 X97.548 Y96.288 E.01477
G1 X96.288 Y97.548 E.06562
G1 X96.288 Y98.097 E.02022
G1 X98.097 Y96.288 E.09421
G1 X98.646 Y96.288 E.02022
G1 X96.288 Y98.646 E.1228
G1 X96.288 Y99.196 E.02025
G1 X99.196 Y96.288 E.15145
G1 X99.745 Y96.288 E.02022
G1 X96.288 Y99.745 E.18004
G1 X96.288 Y100.295 E.02025
G1 X100.295 Y96.288 E.20868
G1 X100.844 Y96.288 E.02022
G1 X96.288 Y100.844 E.23728
G1 X96.288 Y101.393 E.02022
G1 X101.393 Y96.288 E.26587
G1 X101.943 Y96.288 E.02025
G1 X96.288 Y101.943 E.29451
G1 X96.288 Y102.492 E.02022
G1 X102.492 Y96.288 E.3231
G1 X103.042 Y96.288 E.02025
G1 X96.288 Y103.042 E.35175
G1 X96.288 Y103.591 E.02022
G1 X103.591 Y96.288 E.38034
G1 X104.141 Y96.288 E.02025
G1 X96.288 Y104.141 E.40898
G1 X96.288 Y104.69 E.02022
G1 X104.69 Y96.288 E.43757
G1 X105.239 Y96.288 E.02022
G1 X96.288 Y105.239 E.46617
G1 X96.288 Y105.789 E.02025
G1 X105.789 Y96.288 E.49481
G1 X106.338 Y96.288 E.02022
G1 X96.288 Y106.338 E.5234
G1 X96.288 Y106.888 E.02025
G1 X106.888 Y96.288 E.55205
G1 X107.437 Y96.288 E.02022
G1 X96.288 Y107.437 E.58064
G1 X96.288 Y107.986 E.02022
G1 X107.986 Y96.288 E.60923
G1 X108.536 Y96.288 E.02025
G1 X96.288 Y108.536 E.63787
G1 X96.288 Y109.085 E.02022
G1 X109.085 Y96.288 E.66647
G1 X109.635 Y96.288 E.02025
G1 X96.288 Y109.635 E.69511
G1 X96.288 Y110.184 E.02022
G1 X110.184 Y96.288 E.7237
G1 X110.733 Y96.288 E.02022
G1 X96.288 Y110.733 E.75229
G1 X96.288 Y111.283 E.02025
G1 X111.283 Y96.288 E.78094
G1 X111.832 Y96.288 E.02022
G1 X96.288 Y111.832 E.80953
G1 X96.288 Y112.382 E.02025
G1 X112.382 Y96.288 E.83817
G1 X112.931 Y96.288 E.02022
G1 X96.288 Y112.931 E.86676
G1 X96.288 Y113.481 E.02025
G1 X113.481 Y96.288 E.89541
G1 X114.03 Y96.288 E.02022
G1 X96.288 Y114.03 E.924
G1 X96.288 Y114.579 E.02022
G1 X114.579 Y96.288 E.95259
G1 X115.129 Y96.288 E.02025
G1 X96.288 Y115.129 E.98124
G1 X96.288 Y115.678 E.02022
G1 X115.678 Y96.288 E1.00983
G1 X116.228 Y96.288 E.02025
G1 X96.288 Y116.228 E1.03847
G1 X96.288 Y116.777 E.02022
G1 X116.777 Y96.288 E1.06706
G1 X117.326 Y96.288 E.02022
G1 X96.288 Y117.326 E1.09565
G1 X96.288 Y117.876 E.02025
G1 X117.876 Y96.288 E1.1243
G1 X118.425 Y96.288 E.02022
G1 X96.288 Y118.425 E1.15289
G1 X96.288 Y118.975 E.02025
G1 X118.975 Y96.288 E1.18153
G1 X119.524 Y96.288 E.02022
G1 X96.288 Y119.524 E1.21013
G1 X96.288 Y120.074 E.02025
G1 X120.074 Y96.288 E1.23877
G1 X120.623 Y96.288 E.02022
G1 X96.288 Y120.623 E1.26736
G1 X96.288 Y121.172 E.02022
G1 X121.172 Y96.288 E1.29595
G1 X121.722 Y96.288 E.02025
G1 X96.288 Y121.722 E1.3246
G1 X96.288 Y122.271 E.02022
G1 X122.271 Y96.288 E1.35319
G1 X122.821 Y96.288 E.02025
G1 X96.288 Y122.821 E1.38183
G1 X96.288 Y123.37 E.02022
G1 X123.37 Y96.288 E1.41043
G1 X123.84 Y96.19 E.01768
;WIDTH:0.391504
G1 F7200
G1 X123.769 Y96.171 E.00237
G1 X123.788 Y96.242 E.00237
G1 X123.829 Y96.231 E.00137
;WIDTH:0.439999
G1 F7078.599
G1 X123.712 Y96.495 E.01063
G1 X96.495 Y123.712 E1.41746
G1 X96.231 Y123.829 E.01063
;WIDTH:0.391504
G1 F7200
G1 X96.19 Y123.84 E.00137
G1 X96.171 Y123.769 E.00237
G1 X96.242 Y123.788 E.00237
M204 S12000
M204 S3000
G1 X96.242 Y123.788 F30000
G1 X97.044 Y123.712
M204 S15000
;WIDTH:0.439999
G1 F7078.599
G1 X123.712 Y97.044 E1.38886
G1 X123.712 Y97.594 E.02025
G1 X97.594 Y123.712 E1.36022
G1 X98.143 Y123.712 E.02022
G1 X123.712 Y98.143 E1.33163
G1 X123.712 Y98.693 E.02025
G1 X98.693 Y123.712 E1.30298
G1 X99.242 Y123.712 E.02022
G1 X123.712 Y99.242 E1.27439
G1 X123.712 Y99.792 E.02025
G1 X99.792 Y123.712 E1.24575
G1 X100.341 Y123.712 E.02022
G1 X123.712 Y100.341 E1.21716
G1 X123.712 Y100.89 E.02022
G1 X100.89 Y123.712 E1.18857
G1 X101.44 Y123.712 E.02025
G1 X123.712 Y101.44 E1.15992
G1 X123.712 Y101.989 E.02022
G1 X101.989 Y123.712 E1.13133
G1 X102.539 Y123.712 E.02025
G1 X123.712 Y102.539 E1.10269
G1 X123.712 Y103.088 E.02022
G1 X103.088 Y123.712 E1.07409
G1 X103.637 Y123.712 E.02022
G1 X123.712 Y103.637 E1.0455
G1 X123.712 Y104.187 E.02025
G1 X104.187 Y123.712 E1.01686
G1 X104.736 Y123.712 E.02022
G1 X123.712 Y104.736 E.98827
G1 X123.712 Y105.286 E.02025
G1 X105.286 Y123.712 E.95962
G1 X105.835 Y123.712 E.02022
G1 X123.712 Y105.835 E.93103
G1 X123.712 Y106.384 E.02022
G1 X106.384 Y123.712 E.90244
G1 X106.934 Y123.712 E.02025
G1 X123.712 Y106.934 E.87379
G1 X123.712 Y107.483 E.02022
G1 X107.483 Y123.712 E.8452
G1 X108.033 Y123.712 E.02025
G1 X123.712 Y108.033 E.81656
G1 X123.712 Y108.582 E.02022
G1 X108.582 Y123.712 E.78797
G1 X109.132 Y123.712 E.02025
G1 X123.712 Y109.132 E.75932
G1 X123.712 Y109.681 E.02022
G1 X109.681 Y123.712 E.73073
G1 X110.23 Y123.712 E.02022
G1 X123.712 Y110.23 E.70214
G1 X123.712 Y110.78 E.02025
G1 X110.78 Y123.712 E.6735
G1 X111.329 Y123.712 E.02022
G1 X123.712 Y111.329 E.6449
G1 X123.712 Y111.879 E.02025
G1 X111.879 Y123.712 E.61626
G1 X112.428 Y123.712 E.02022
G1 X123.712 Y112.428 E.58767
G1 X123.712 Y112.977 E.02022
G1 X112.977 Y123.712 E.55908
G1 X113.527 Y123.712 E.02025
G1 X123.712 Y113.527 E.53043
G1 X123.712 Y114.076 E.02022
G1 X114.076 Y123.712 E.50184
G1 X114.626 Y123.712 E.02025
G1 X123.712 Y114.626 E.4732
G1 X123.712 Y115.175 E.02022
G1 X115.175 Y123.712 E.44461
G1 X115.725 Y123.712 E.02025
G1 X123.712 Y115.725 E.41596
G1 X123.712 Y116.274 E.02022
G1 X116.274 Y123.712 E.38737
G1 X116.823 Y123.712 E.02022
G1 X123.712 Y116.823 E.35878
G1 X123.712 Y117.373 E.02025
G1 X117.373 Y123.712 E.33013
G1 X117.922 Y123.712 E.02022
G1 X123.712 Y117.922 E.30154
G1 X123.712 Y118.472 E.02025
G1 X118.472 Y123.712 E.2729
G1 X119.021 Y123.712 E.02022
G1 X123.712 Y119.021 E.24431
G1 X123.712 Y119.57 E.02022
G1 X119.57 Y123.712 E.21571
G1 X120.12 Y123.712 E.02025
G1 X123.712 Y120.12 E.18707
G1 X123.712 Y120.669 E.02022
G1 X120.669 Y123.712 E.15848
G1 X121.219 Y123.712 E.02025
G1 X123.712 Y121.219 E.12983
G1 X123.712 Y121.768 E.02022
G1 X121.768 Y123.712 E.10124
G1 X122.318 Y123.712 E.02025
G1 X123.712 Y122.318 E.0726
G1 X123.712 Y122.867 E.02022
G1 X122.867 Y123.712 E.04401
G1 X123.416 Y123.712 E.02022
G1 X123.712 Y123.416 E.01542
G1 X123.908 Y123.297 E.00844
;WIDTH:0.391504
G1 F7200
G1 X123.867 Y123.308 E.00137
G1 X123.848 Y123.237 E.00237
G1 X123.919 Y123.256 E.00237
M204 S12000
;LAYER_CHANGE
;Z:0.76
;HEIGHT:0.24
;BEFORE_LAYER_CHANGE
;0.76
G92 E0

G1 Z.76 F30000
;AFTER_LAYER_CHANGE
;0.76
M204 S3000
G1 X124.023 Y124.023
M204 S12000
;TYPE:Perimeter
;WIDTH:0.439999
G1 F7078.599
G1 X95.977 Y124.023 E1.03282
G1 X95.977 Y95.977 E1.03282
G1 X124.023 Y95.977 E1.03282
G1 X124.023 Y110 E.51641
G1 X124.023 Y123.963 E.5142
M204 S3000
G1 X124.412 Y124.412 F30000
M204 S12000
G1 F7078.599
G1 X95.588 Y124.412 E1.06147
G1 X95.588 Y95.588 E1.06147
G1 X124.412 Y95.588 E1.06147
G1 X124.412 Y110 E.53074
G1 X124.412 Y124.352 E.52853
M204 S3000
G1 X124.412 Y124.352 F30000
G1 X124.79 Y124.79
M204 S12000
;TYPE:External perimeter
;WIDTH:0.419999
G1 F7462.788
G1 X95.21 Y124.79 E1.03323
G1 X95.21 Y95.21 E1.03323
G1 X124.79 Y95.21 E1.03323
G1 X124.79 Y110 E.51662
G1 X124.79 Y124.73 E.51452
G1 X124.394 Y124.789 F30000
M204 S3000
G1 X96.319 Y123.607
M204 S15000
;TYPE:Solid infill
;WIDTH:0.534256
G1 F5696.506
G1 X96.277 Y123.649 E.00272
G1 X96.292 Y123.708 E.00279
G1 X96.351 Y123.723 E.00279
G1 X96.393 Y123.681 E.00272
G1 X96.378 Y123.622 E.00279
;WIDTH:0.439999
G1 F7078.599
G1 X96.288 Y123.002 E.02307
G1 X96.998 Y123.712 E.03698
G1 X97.548 Y123.712 E.02025
G1 X96.288 Y122.452 E.06562
G1 X96.288 Y121.903 E.02022
G1 X98.097 Y123.712 E.09421
G1 X98.646 Y123.712 E.02022
G1 X96.288 Y121.354 E.1228
G1 X96.288 Y120.804 E.02025
